src/Components/spotify-logo.svg

<svg width="567" height="171" xmlns="http://www.w3.org/2000/svg"><g fill="#191414" fill-rule="evenodd"><path d="M137.532 76.477c-26.994-16.031-71.52-17.505-97.289-9.684-4.138 1.255-8.514-1.081-9.768-5.219a7.835 7.835 0 0 1 5.221-9.771c29.581-8.979 78.755-7.245 109.831 11.202a7.831 7.831 0 0 1 2.737 10.733c-2.208 3.722-7.019 4.949-10.732 2.739zm-.884 23.744c-1.893 3.073-5.911 4.036-8.98 2.15-22.505-13.834-56.822-17.841-83.447-9.759-3.453 1.043-7.1-.904-8.148-4.35a6.538 6.538 0 0 1 4.353-8.143c30.416-9.229 68.226-4.759 94.074 11.126 3.069 1.89 4.035 5.91 2.148 8.976zm-10.247 22.803a5.215 5.215 0 0 1-7.176 1.737c-19.666-12.019-44.418-14.734-73.568-8.075a5.217 5.217 0 0 1-6.249-3.925 5.212 5.212 0 0 1 3.925-6.249c31.9-7.293 59.264-4.154 81.337 9.334a5.22 5.22 0 0 1 1.731 7.178zM87.996 2.237c-46.25 0-83.744 37.492-83.744 83.742 0 46.253 37.494 83.744 83.744 83.744 46.251 0 83.743-37.491 83.743-83.744 0-46.25-37.492-83.742-83.743-83.742zM232.089 79.546c-14.459-3.448-17.034-5.868-17.034-10.952 0-4.805 4.524-8.037 11.25-8.037 6.52 0 12.984 2.455 19.763 7.509a.945.945 0 0 0 .715.174.933.933 0 0 0 .625-.386l7.06-9.952a.949.949 0 0 0-.18-1.288c-8.067-6.473-17.151-9.62-27.769-9.62-15.612 0-26.517 9.369-26.517 22.774 0 14.375 9.407 19.465 25.663 23.394 13.836 3.187 16.171 5.856 16.171 10.63 0 5.289-4.722 8.577-12.321 8.577-8.439 0-15.324-2.843-23.025-9.512a.997.997 0 0 0-.695-.226.94.94 0 0 0-.649.334l-7.916 9.421a.94.94 0 0 0 .093 1.313c8.961 7.999 19.98 12.225 31.872 12.225 16.823 0 27.694-9.193 27.694-23.42 0-12.024-7.184-18.674-24.8-22.958M307.162 95.661c0 10.153-6.254 17.238-15.209 17.238-8.853 0-15.531-7.407-15.531-17.238 0-9.83 6.678-17.238 15.531-17.238 8.811 0 15.209 7.248 15.209 17.238zM294.95 65.286c-7.292 0-13.273 2.872-18.205 8.757v-6.624a.949.949 0 0 0-.947-.949h-12.946a.948.948 0 0 0-.946.949v73.602c0 .523.423.949.946.949h12.946a.949.949 0 0 0 .947-.949v-23.232c4.933 5.536 10.915 8.24 18.205 8.24 13.549 0 27.265-10.43 27.265-30.368 0-19.942-13.716-30.375-27.265-30.375zM357.373 113.005c-9.281 0-16.278-7.457-16.278-17.344 0-9.928 6.755-17.134 16.064-17.134 9.341 0 16.385 7.457 16.385 17.351 0 9.927-6.801 17.127-16.171 17.127zm0-47.719c-17.449 0-31.119 13.436-31.119 30.592 0 16.969 13.576 30.264 30.905 30.264 17.511 0 31.223-13.391 31.223-30.481 0-17.033-13.618-30.375-31.009-30.375zM425.644 66.47h-14.247V51.904a.946.946 0 0 0-.945-.948h-12.945a.95.95 0 0 0-.95.948V66.47h-6.225a.946.946 0 0 0-.943.949v11.127c0 .522.421.948.943.948h6.225v28.792c0 11.635 5.791 17.534 17.212 17.534 4.644 0 8.497-.959 12.128-3.018a.945.945 0 0 0 .479-.821v-10.596a.951.951 0 0 0-1.372-.85c-2.494 1.255-4.905 1.834-7.6 1.834-4.153 0-6.007-1.885-6.007-6.112V79.494h14.247a.946.946 0 0 0 .944-.948V67.419a.946.946 0 0 0-.944-.949M475.281 66.527v-1.789c0-5.263 2.018-7.61 6.544-7.61 2.699 0 4.867.536 7.295 1.346a.946.946 0 0 0 1.245-.902v-10.91a.948.948 0 0 0-.669-.909c-2.565-.762-5.847-1.546-10.761-1.546-11.959 0-18.279 6.734-18.279 19.467v2.74h-6.22a.952.952 0 0 0-.95.948v11.184c0 .522.428.948.95.948h6.22v44.41c0 .523.422.948.944.948h12.946a.95.95 0 0 0 .949-.948v-44.41h12.088l18.517 44.398c-2.102 4.665-4.169 5.593-6.991 5.593-2.281 0-4.683-.681-7.139-2.025a.972.972 0 0 0-.754-.071.959.959 0 0 0-.56.512l-4.388 9.627a.941.941 0 0 0 .407 1.225c4.581 2.481 8.717 3.54 13.827 3.54 9.56 0 14.844-4.454 19.503-16.434l22.461-58.04a.946.946 0 0 0-.879-1.292h-13.478a.951.951 0 0 0-.897.636L513.405 106.6l-15.123-39.463a.943.943 0 0 0-.884-.61h-22.117M446.505 66.47h-12.947a.95.95 0 0 0-.948.949v56.485c0 .523.425.948.948.948h12.947a.95.95 0 0 0 .948-.948V67.419a.95.95 0 0 0-.948-.949M440.097 40.751c-5.128 0-9.291 4.153-9.291 9.282 0 5.131 4.163 9.288 9.291 9.288 5.127 0 9.285-4.157 9.285-9.288 0-5.129-4.158-9.282-9.285-9.282M554.049 72.089h-2.372v3.025h2.372c1.184 0 1.891-.579 1.891-1.514 0-.984-.707-1.511-1.891-1.511zm1.538 4.315l2.577 3.608h-2.173l-2.32-3.309h-1.994v3.309h-1.819v-9.563h4.265c2.221 0 3.683 1.136 3.683 3.05 0 1.568-.906 2.526-2.219 2.905zm-2.02-9.138c-4.667 0-8.199 3.71-8.199 8.253 0 4.54 3.507 8.201 8.151 8.201 4.666 0 8.201-3.708 8.201-8.253 0-4.541-3.509-8.201-8.153-8.201zm-.048 17.365c-5.124 0-9.111-4.115-9.111-9.112 0-4.998 4.039-9.159 9.159-9.159a9.074 9.074 0 0 1 9.111 9.107c0 4.997-4.036 9.164-9.159 9.164z"/></g></svg>

<?xml version="1.0" encoding="UTF-8"?>
<svg width="567px" height="171px" viewBox="0 0 567 171" version="1.1" xmlns="http://www.w3.org/2000/svg" xmlns:xlink="http://www.w3.org/1999/xlink">
    <!-- Generator: Sketch 51.3 (57544) - http://www.bohemiancoding.com/sketch -->
    <title>Spotify_Logo_RGB_Green</title>
    <desc>Created with Sketch.</desc>
    <defs></defs>
    <g id="Spotify_Logo_RGB_Green" stroke="none" stroke-width="1" fill="none" fill-rule="evenodd">
        <path d="M137.532,76.477 C110.538,60.446 66.012,58.972 40.243,66.793 C36.105,68.048 31.729,65.712 30.475,61.574 C29.221,57.434 31.555,53.061 35.696,51.803 C65.277,42.824 114.451,44.558 145.527,63.005 C149.25,65.215 150.471,70.022 148.264,73.738 C146.056,77.46 141.245,78.687 137.532,76.477 Z M136.648,100.221 C134.755,103.294 130.737,104.257 127.668,102.371 C105.163,88.537 70.846,84.53 44.221,92.612 C40.768,93.655 37.121,91.708 36.073,88.262 C35.032,84.809 36.98,81.169 40.426,80.119 C70.842,70.89 108.652,75.36 134.5,91.245 C137.569,93.135 138.535,97.155 136.648,100.221 Z M126.401,123.024 C124.897,125.491 121.683,126.265 119.225,124.761 C99.559,112.742 74.807,110.027 45.657,116.686 C42.848,117.33 40.049,115.569 39.408,112.761 C38.764,109.952 40.518,107.153 43.333,106.512 C75.233,99.219 102.597,102.358 124.67,115.846 C127.131,117.349 127.906,120.564 126.401,123.024 Z M87.996,2.237 C41.746,2.237 4.252,39.729 4.252,85.979 C4.252,132.232 41.746,169.723 87.996,169.723 C134.247,169.723 171.739,132.232 171.739,85.979 C171.739,39.729 134.247,2.237 87.996,2.237 Z" id="Fill-1" fill="#1ED760"></path>
        <path d="M232.089,79.546 C217.63,76.098 215.055,73.678 215.055,68.594 C215.055,63.789 219.579,60.557 226.305,60.557 C232.825,60.557 239.289,63.012 246.068,68.066 C246.273,68.219 246.53,68.28 246.783,68.24 C247.036,68.202 247.259,68.064 247.408,67.854 L254.468,57.902 C254.758,57.492 254.679,56.928 254.288,56.614 C246.221,50.141 237.137,46.994 226.519,46.994 C210.907,46.994 200.002,56.363 200.002,69.768 C200.002,84.143 209.409,89.233 225.665,93.162 C239.501,96.349 241.836,99.018 241.836,103.792 C241.836,109.081 237.114,112.369 229.515,112.369 C221.076,112.369 214.191,109.526 206.49,102.857 C206.299,102.693 206.037,102.617 205.795,102.631 C205.541,102.652 205.308,102.77 205.146,102.965 L197.23,112.386 C196.898,112.777 196.94,113.361 197.323,113.699 C206.284,121.698 217.303,125.924 229.195,125.924 C246.018,125.924 256.889,116.731 256.889,102.504 C256.889,90.48 249.705,83.83 232.089,79.546" id="Fill-2" fill="#1ED760"></path>
        <path d="M307.162,95.661 C307.162,105.814 300.908,112.899 291.953,112.899 C283.1,112.899 276.422,105.492 276.422,95.661 C276.422,85.831 283.1,78.423 291.953,78.423 C300.764,78.423 307.162,85.671 307.162,95.661 Z M294.95,65.286 C287.658,65.286 281.677,68.158 276.745,74.043 L276.745,67.419 C276.745,66.896 276.321,66.47 275.798,66.47 L262.852,66.47 C262.329,66.47 261.906,66.896 261.906,67.419 L261.906,141.021 C261.906,141.544 262.329,141.97 262.852,141.97 L275.798,141.97 C276.321,141.97 276.745,141.544 276.745,141.021 L276.745,117.789 C281.678,123.325 287.66,126.029 294.95,126.029 C308.499,126.029 322.215,115.599 322.215,95.661 C322.215,75.719 308.499,65.286 294.95,65.286 Z" id="Fill-3" fill="#1ED760"></path>
        <path d="M357.373,113.005 C348.092,113.005 341.095,105.548 341.095,95.661 C341.095,85.733 347.85,78.527 357.159,78.527 C366.5,78.527 373.544,85.984 373.544,95.878 C373.544,105.805 366.743,113.005 357.373,113.005 Z M357.373,65.286 C339.924,65.286 326.254,78.722 326.254,95.878 C326.254,112.847 339.83,126.142 357.159,126.142 C374.67,126.142 388.382,112.751 388.382,95.661 C388.382,78.628 374.764,65.286 357.373,65.286 Z" id="Fill-4" fill="#1ED760"></path>
        <path d="M425.644,66.47 L411.397,66.47 L411.397,51.904 C411.397,51.381 410.975,50.956 410.452,50.956 L397.507,50.956 C396.983,50.956 396.557,51.381 396.557,51.904 L396.557,66.47 L390.332,66.47 C389.81,66.47 389.389,66.896 389.389,67.419 L389.389,78.546 C389.389,79.068 389.81,79.494 390.332,79.494 L396.557,79.494 L396.557,108.286 C396.557,119.921 402.348,125.82 413.769,125.82 C418.413,125.82 422.266,124.861 425.897,122.802 C426.192,122.637 426.376,122.319 426.376,121.981 L426.376,111.385 C426.376,111.058 426.205,110.75 425.926,110.578 C425.644,110.401 425.293,110.392 425.004,110.535 C422.51,111.79 420.099,112.369 417.404,112.369 C413.251,112.369 411.397,110.484 411.397,106.257 L411.397,79.494 L425.644,79.494 C426.167,79.494 426.588,79.068 426.588,78.546 L426.588,67.419 C426.588,66.896 426.167,66.47 425.644,66.47" id="Fill-5" fill="#1ED760"></path>
        <path d="M475.281,66.527 L475.281,64.738 C475.281,59.475 477.299,57.128 481.825,57.128 C484.524,57.128 486.692,57.664 489.12,58.474 C489.419,58.568 489.731,58.521 489.974,58.342 C490.224,58.163 490.365,57.876 490.365,57.572 L490.365,46.662 C490.365,46.246 490.097,45.876 489.696,45.753 C487.131,44.991 483.849,44.207 478.935,44.207 C466.976,44.207 460.656,50.941 460.656,63.674 L460.656,66.414 L454.436,66.414 C453.914,66.414 453.486,66.84 453.486,67.362 L453.486,78.546 C453.486,79.068 453.914,79.494 454.436,79.494 L460.656,79.494 L460.656,123.904 C460.656,124.427 461.078,124.852 461.6,124.852 L474.546,124.852 C475.069,124.852 475.495,124.427 475.495,123.904 L475.495,79.494 L487.583,79.494 L506.1,123.892 C503.998,128.557 501.931,129.485 499.109,129.485 C496.828,129.485 494.426,128.804 491.97,127.46 C491.739,127.333 491.466,127.312 491.216,127.389 C490.969,127.477 490.761,127.66 490.656,127.901 L486.268,137.528 C486.059,137.983 486.237,138.517 486.675,138.753 C491.256,141.234 495.392,142.293 500.502,142.293 C510.062,142.293 515.346,137.839 520.005,125.859 L542.466,67.819 C542.578,67.527 542.545,67.198 542.366,66.938 C542.188,66.682 541.901,66.527 541.587,66.527 L528.109,66.527 C527.706,66.527 527.344,66.783 527.212,67.163 L513.405,106.6 L498.282,67.137 C498.144,66.769 497.791,66.527 497.398,66.527 L475.281,66.527" id="Fill-6" fill="#1ED760"></path>
        <path d="M446.505,66.47 L433.558,66.47 C433.035,66.47 432.61,66.896 432.61,67.419 L432.61,123.904 C432.61,124.427 433.035,124.852 433.558,124.852 L446.505,124.852 C447.027,124.852 447.453,124.427 447.453,123.904 L447.453,67.419 C447.453,66.896 447.027,66.47 446.505,66.47" id="Fill-7" fill="#1ED760"></path>
        <path d="M440.097,40.751 C434.969,40.751 430.806,44.904 430.806,50.033 C430.806,55.164 434.969,59.321 440.097,59.321 C445.224,59.321 449.382,55.164 449.382,50.033 C449.382,44.904 445.224,40.751 440.097,40.751" id="Fill-8" fill="#1ED760"></path>
        <path d="M554.049,72.089 L551.677,72.089 L551.677,75.114 L554.049,75.114 C555.233,75.114 555.94,74.535 555.94,73.6 C555.94,72.616 555.233,72.089 554.049,72.089 Z M555.587,76.404 L558.164,80.012 L555.991,80.012 L553.671,76.703 L551.677,76.703 L551.677,80.012 L549.858,80.012 L549.858,70.449 L554.123,70.449 C556.344,70.449 557.806,71.585 557.806,73.499 C557.806,75.067 556.9,76.025 555.587,76.404 Z M553.567,67.266 C548.9,67.266 545.368,70.976 545.368,75.519 C545.368,80.059 548.875,83.72 553.519,83.72 C558.185,83.72 561.72,80.012 561.72,75.467 C561.72,70.926 558.211,67.266 553.567,67.266 Z M553.519,84.631 C548.395,84.631 544.408,80.516 544.408,75.519 C544.408,70.521 548.447,66.36 553.567,66.36 C558.69,66.36 562.678,70.474 562.678,75.467 C562.678,80.464 558.642,84.631 553.519,84.631 Z" id="Fill-9" fill="#1ED760"></path>
    </g>
</svg>
